img/music.svg

<?xml version="1.0" encoding="UTF-8"?>
<svg width="40px" height="48px" viewBox="0 0 40 48" version="1.1" xmlns="http://www.w3.org/2000/svg" xmlns:xlink="http://www.w3.org/1999/xlink">
    <!-- Generator: Sketch 51.2 (57519) - http://www.bohemiancoding.com/sketch -->
    <title>music</title>
    <desc>Created with Sketch.</desc>
    <defs></defs>
    <g id="Events" stroke="none" stroke-width="1" fill="none" fill-rule="evenodd">
        <g id="Assets" transform="translate(-450.000000, -241.000000)">
            <g id="music" transform="translate(444.000000, 239.000000)">
                <circle id="Oval" fill-opacity="0" fill="#D8D8D8" cx="26" cy="26" r="26"></circle>
                <g id="011-quaver" transform="translate(6.000000, 2.000000)" fill="#333333" fill-rule="nonzero">
                    <path d="M12.3031656,28.4217423 C12.9536687,27.4411288 13.2740613,26.3768834 13.2503558,25.3278037 L13.2503558,4.44780368 C14.1744294,5.46478528 15.3273129,6.52490798 16.5234847,7.10429448 C18.6535951,8.13614724 18.7721227,9.73531288 18.7074847,11.4216442 C18.7040982,11.5108712 18.7008589,11.5952393 18.6985031,11.6741595 C18.6811288,12.2837301 19.1612761,12.7921472 19.7708466,12.8095215 C19.7815951,12.809816 19.7921963,12.8099632 19.8029448,12.8099632 C20.3982331,12.8099632 20.8891288,12.336 20.9062086,11.7371779 C20.9082699,11.6650307 20.9112147,11.5878773 20.9143067,11.5061595 C20.9674601,10.1169571 21.0920245,6.86355828 17.486135,5.11671166 C15.6973252,4.25020859 13.6917791,1.59651534 13.0699877,0.647116564 C13.0688098,0.645349693 13.0674847,0.643877301 13.0663067,0.64196319 C13.0532025,0.62208589 13.0386258,0.603239264 13.0243436,0.584245399 C13.0162454,0.573644172 13.0087362,0.562453988 13.0001963,0.552 C12.9897423,0.539190184 12.9781104,0.527411043 12.9670675,0.515042945 C12.8884417,0.427141104 12.798184,0.354110429 12.699681,0.297128834 C12.6901104,0.291533742 12.6811288,0.285202454 12.671411,0.28004908 C12.6631656,0.275631902 12.6546258,0.272245399 12.6463804,0.26797546 C12.5437546,0.215705521 12.4318528,0.179337423 12.3136196,0.161226994 C12.2971288,0.158576687 12.280638,0.155337423 12.2638528,0.153570552 C12.2506012,0.15209816 12.2370552,0.15195092 12.2236564,0.150920245 C12.1999509,0.149300613 12.1762454,0.147533742 12.1523926,0.147386503 C12.1503313,0.147386503 12.1482699,0.147092025 12.1460613,0.147092025 C12.1359018,0.147092025 12.1260368,0.148417178 12.1158773,0.148564417 C12.0912883,0.149153374 12.0666994,0.15003681 12.0422577,0.152245399 C12.0279755,0.153570552 12.014135,0.15592638 12.0001472,0.157840491 C11.9785031,0.160785276 11.9567117,0.163582822 11.9350675,0.167705521 C11.9188712,0.170944785 11.9031166,0.174920245 11.8870675,0.178748466 C11.8682209,0.183312883 11.8495215,0.187730061 11.8309693,0.193325153 C11.8127117,0.198773006 11.7948957,0.205251534 11.7770798,0.211582822 C11.7613252,0.217177914 11.7454233,0.222478528 11.729816,0.228809816 C11.7094969,0.237055215 11.6899141,0.246478528 11.6703313,0.25590184 C11.6575215,0.26208589 11.6445644,0.267680982 11.6319018,0.274306748 C11.6101104,0.285791411 11.5892025,0.298601227 11.5682945,0.311411043 C11.5596074,0.316858896 11.550773,0.321128834 11.5422331,0.326723926 C11.5404663,0.32790184 11.5388466,0.329374233 11.5369325,0.330552147 C11.5170552,0.343803681 11.4980613,0.358233129 11.4790675,0.372662577 C11.4684663,0.380760736 11.4572761,0.388269939 11.4469693,0.396662577 C11.433865,0.407411043 11.4214969,0.419337423 11.4088344,0.430822086 C11.3199018,0.510478528 11.2462822,0.60206135 11.1891534,0.701889571 C11.184589,0.709840491 11.1792883,0.717496933 11.1748712,0.725595092 C11.170454,0.733693252 11.1670675,0.742233129 11.1627975,0.750478528 C11.1106748,0.852515337 11.074454,0.963680982 11.0563436,1.08103067 C11.053546,1.09855215 11.0501595,1.11577914 11.0483926,1.13330061 C11.0470675,1.14611043 11.046773,1.15921472 11.0458896,1.17217178 C11.0441227,1.19631902 11.0425031,1.2206135 11.0422086,1.24490798 C11.0422086,1.24696933 11.0419141,1.24903067 11.0419141,1.25109202 L11.0419141,21.3866503 C10.0470184,20.7186258 8.78311656,20.3399264 7.38478528,20.3399264 C6.58439264,20.3399264 5.7806135,20.4671411 4.99568098,20.7178896 C1.49992638,21.8351411 -0.585423313,25.1172515 0.346748466,28.0342086 C1.05379141,30.2469202 3.26797546,31.6767607 5.98777914,31.6767607 C6.78817178,31.6767607 7.59195092,31.549546 8.37688344,31.2987975 C10.0275828,30.7718282 11.4220859,29.7498405 12.3031656,28.4217423 Z M10.4628221,27.2006871 C9.85825767,28.1119509 8.87867485,28.820319 7.70458896,29.1954847 C7.13727607,29.3767362 6.55965644,29.4686135 5.9876319,29.4686135 C4.24770552,29.4686135 2.85923926,28.641865 2.45035583,27.3623558 C1.88878528,25.6052025 3.33217178,23.5684417 5.66782822,22.8220859 C6.2351411,22.6408344 6.81276074,22.5489571 7.38463804,22.5489571 C9.12471166,22.5489571 10.5131779,23.3757055 10.9220613,24.655362 C11.1798773,25.4619387 11.0167362,26.3658405 10.4628221,27.2006871 Z" id="Shape"></path>
                    <path d="M39.7412025,34.4938896 L39.7412025,14.9305031 C39.7412025,14.928589 39.7412025,14.9266748 39.7412025,14.9246135 L39.7412025,10.7793865 C39.7412025,10.7774724 39.740908,10.7757055 39.740908,10.7737914 C39.7407607,10.7462577 39.7389939,10.7187239 39.7367853,10.6911902 C39.7360491,10.6816196 39.7359018,10.6717546 39.7348712,10.662184 C39.7323681,10.6398037 39.7283926,10.6175706 39.7247117,10.5953374 C39.7222086,10.5806135 39.7204417,10.5657423 39.7173497,10.5511656 C39.7142577,10.5370307 39.7099877,10.5228957 39.706454,10.508908 C39.7008589,10.4866748 39.695411,10.4642945 39.6884908,10.4425031 C39.6856933,10.433816 39.6820123,10.4251288 39.6790675,10.4164417 C39.6697914,10.3899387 39.6602209,10.3637301 39.6490307,10.3381104 C39.6482945,10.3363436 39.6478528,10.3347239 39.6471166,10.3329571 C39.6435828,10.3250061 39.6393129,10.3177914 39.6356319,10.310135 C39.624589,10.2865767 39.6133988,10.2634601 39.6007362,10.2409325 C39.593227,10.2273865 39.5848344,10.2145767 39.5767362,10.2016196 C39.5662822,10.1846871 39.5559755,10.1676074 39.544638,10.1512638 C39.5335951,10.1352147 39.5216687,10.1199018 39.5097423,10.104589 C39.5001718,10.0922209 39.4907485,10.0795583 39.4807362,10.0677791 C39.4668957,10.0512883 39.452319,10.0358282 39.4375951,10.0203681 C39.4278773,10.0102086 39.418454,9.9997546 39.4084417,9.99003681 C39.3931288,9.97516564 39.3773742,9.96117791 39.3614724,9.94733742 C39.3502822,9.93761963 39.3392393,9.9277546 39.3277546,9.91862577 C39.312589,9.90640491 39.2968344,9.89506748 39.2810798,9.88373006 C39.2673865,9.87386503 39.2536933,9.864 39.2395583,9.85472393 C39.2252761,9.84544785 39.2106994,9.83690798 39.1959755,9.82822086 C39.1793374,9.81850307 39.1626994,9.80878528 39.1454724,9.79980368 C39.1322209,9.79303067 39.1186748,9.78684663 39.1052761,9.78051534 C39.0862822,9.77168098 39.0672883,9.76284663 39.0477055,9.75504294 C39.0343067,9.74959509 39.0207607,9.74503067 39.0072147,9.74017178 C38.9874847,9.73325153 38.9677546,9.72618405 38.9475828,9.72029448 C38.9319755,9.71573006 38.9162209,9.71204908 38.9004663,9.70822086 C38.8822086,9.70380368 38.8640982,9.69909202 38.8453988,9.69555828 C38.8250798,9.69173006 38.8046135,9.68893252 38.784,9.68613497 C38.7695706,9.68422086 38.7552883,9.68186503 38.7407117,9.68039264 C38.7137669,9.67788957 38.6868221,9.67700613 38.6597301,9.67641718 C38.6520736,9.67626994 38.6447117,9.67523926 38.6372025,9.67523926 C38.6355828,9.67523926 38.6341104,9.6753865 38.6323436,9.67553374 C38.6031902,9.67568098 38.5738896,9.67744785 38.544589,9.67995092 C38.536638,9.68053988 38.5285399,9.68068712 38.520589,9.68157055 C38.4964417,9.68407362 38.4724417,9.68834356 38.4484417,9.6926135 C38.4354847,9.69482209 38.4223804,9.69644172 38.4095706,9.69909202 C38.3939632,9.70233129 38.3785031,9.70704294 38.3628957,9.7110184 C38.3419877,9.71646626 38.3209325,9.72132515 38.3006135,9.72795092 C38.2911902,9.73104294 38.2817669,9.7350184 38.2723436,9.73825767 C38.2464294,9.7473865 38.2208098,9.75666258 38.1957791,9.76755828 C38.1941595,9.76829448 38.1923926,9.7687362 38.1906258,9.76947239 L22.4545767,16.7241718 C22.4526626,16.724908 22.4507485,16.7259387 22.4486871,16.7266748 L22.4360245,16.7322699 C22.4280736,16.7358037 22.4208589,16.7402209 22.4130552,16.7439018 C22.3896442,16.7549448 22.3663804,16.766135 22.3438528,16.7786503 C22.3303067,16.7863067 22.3173497,16.7945521 22.3042454,16.8026503 C22.2874601,16.8131043 22.2705276,16.8232638 22.254184,16.834454 C22.2379877,16.8457914 22.2225276,16.8577178 22.2070675,16.8697914 C22.1948466,16.8792147 22.1826258,16.8884908 22.1706994,16.8983558 C22.1540613,16.9123436 22.138454,16.9270675 22.1228466,16.9417914 C22.1128344,16.951362 22.1025276,16.9607853 22.0928098,16.9706503 C22.0779387,16.9859632 22.0638037,17.001865 22.0499632,17.0177669 C22.0402454,17.0289571 22.0305276,17.0398528 22.0212515,17.0514847 C22.0091779,17.0667975 21.9976933,17.0822577 21.9865031,17.0980123 C21.976638,17.1117055 21.966773,17.125546 21.9574969,17.139681 C21.9482209,17.153816 21.9398282,17.1682454 21.9312883,17.1826748 C21.9214233,17.1996074 21.9115583,17.2163926 21.9025767,17.2339141 C21.8958037,17.2468712 21.8897669,17.2599755 21.8837301,17.273227 C21.8746012,17.2926626 21.8657669,17.3119509 21.8576687,17.3319755 C21.8525153,17.3447853 21.8480982,17.3577423 21.8435337,17.3706994 C21.8361718,17.3911656 21.8291043,17.4113374 21.8229202,17.4323926 C21.8186503,17.4471166 21.8151166,17.462135 21.8114356,17.4770061 C21.8067239,17.4961472 21.801865,17.5152883 21.798184,17.5347239 C21.7945031,17.553865 21.792,17.5731534 21.7893497,17.5924417 C21.7871411,17.6081963 21.784638,17.6236564 21.7831656,17.6395583 C21.7808098,17.6647362 21.7799264,17.6902086 21.7793374,17.715681 C21.7791902,17.7246626 21.7780123,17.7333497 21.7780123,17.7423313 L21.7780123,17.7566135 C21.7780123,17.7585276 21.7780123,17.7604417 21.7780123,17.7623558 L21.7780123,21.9221595 C21.7780123,21.9240736 21.7780123,21.9259877 21.7780123,21.9279018 L21.7780123,37.6791166 C20.7850307,37.0163926 19.5256933,36.6407853 18.1332515,36.6407853 C17.3328589,36.6407853 16.5290798,36.768 15.7441472,37.0187485 C14.0933006,37.5463067 12.6989448,38.5681472 11.817865,39.8963926 C10.8859877,41.300908 10.6293497,42.8773988 11.0952147,44.3350675 C11.8022577,46.5477791 14.0164417,47.9776196 16.7362454,47.9776196 C17.536638,47.9776196 18.3404172,47.8504049 19.1253497,47.5996564 C20.7760491,47.0720982 22.1705521,46.0502577 23.0516319,44.7221595 C23.7554356,43.6613006 24.0733252,42.5026748 23.9866012,41.3709939 L23.9866012,22.6271411 L37.5326135,16.6402454 L37.5326135,30.8021595 C36.5394847,30.1394356 35.2802945,29.763681 33.8877055,29.763681 C33.0873129,29.763681 32.2835337,29.8908957 31.4986012,30.1416442 C28.0028466,31.2588957 25.9174969,34.5410061 26.8496687,37.4579632 C27.5567117,39.6706748 29.7708957,41.1005153 32.4906994,41.1005153 C33.291092,41.1005153 34.0948712,40.9733006 34.8798037,40.7225521 C36.5305031,40.1949939 37.9250061,39.1731534 38.8062331,37.844908 C39.5100368,36.7843436 39.8280736,35.6255706 39.7412025,34.4938896 Z M18.4532025,45.4960491 C17.8858896,45.6773006 17.3082699,45.7691779 16.7362454,45.7691779 C14.996319,45.7691779 13.6078528,44.9424294 13.1989693,43.6629202 C12.9413006,42.8563436 13.1042945,41.9522945 13.6582086,41.1174479 C14.262773,40.2063313 15.2423558,39.497816 16.4164417,39.1226503 C16.9837546,38.9413988 17.5613742,38.8495215 18.1332515,38.8495215 C19.8731779,38.8495215 21.2616442,39.6762699 21.6705276,40.9559264 C21.7264785,41.1309939 21.7613742,41.3110675 21.7780123,41.4936442 L21.7780123,41.9110675 C21.7780123,41.9231411 21.7794847,41.934773 21.7797791,41.9468466 C21.7373742,42.4657178 21.5464049,42.9960736 21.2112883,43.5012515 C20.6067239,44.4123681 19.6272883,45.1207362 18.4532025,45.4960491 Z M23.9866012,20.2124172 L23.9866012,18.4614479 L37.5326135,12.4746994 L37.5326135,14.2255215 L23.9866012,20.2124172 Z M34.2078037,38.6189448 C33.6404908,38.8001963 33.0628712,38.8920736 32.4908466,38.8920736 C30.7509202,38.8920736 29.362454,38.0653252 28.9535706,36.785816 C28.392,35.0286626 29.8353865,32.9919018 32.1710429,32.245546 C32.7383558,32.0642945 33.3159755,31.9724172 33.8878528,31.9724172 C35.6279264,31.9724172 37.0163926,32.7991656 37.4252761,34.0788221 C37.481227,34.2538896 37.5161227,34.4339632 37.5327607,34.6165399 L37.5327607,34.8435828 C37.5327607,34.8870184 37.5358528,34.929865 37.5408589,34.9719755 C37.5159755,35.5216196 37.3223558,36.0871656 36.966184,36.6241472 C36.3613252,37.5352638 35.3818896,38.2436319 34.2078037,38.6189448 Z" id="Shape"></path>
                </g>
            </g>
        </g>
    </g>
</svg>

<svg xmlns="http://www.w3.org/2000/svg" width="40" height="48" fill-rule="evenodd"><circle fill-opacity="0" fill="#d8d8d8" cx="20" cy="24" r="26"/><path d="M12.303 28.422c.65-.98.97-2.045.947-3.094V4.448c.924 1.017 2.077 2.077 3.273 2.656 2.13 1.032 2.25 2.63 2.184 4.317l-.01.253a1.11 1.11 0 0 0 1.072 1.135h.032c.595 0 1.086-.474 1.103-1.073l.008-.23c.053-1.4.178-4.643-3.428-6.4-1.8-.867-3.794-3.52-4.416-4.47l-.046-.063L13 .552l-.033-.037A1.17 1.17 0 0 0 12.7.297L12.67.28l-.025-.012a1.1 1.1 0 0 0-.333-.107l-.05-.008-.04-.003-.07-.004-.037.001-.074.004-.04.007-.065.01-.048.01-.056.015-.054.018-.047.017-.06.027-.038.018-.064.037-.026.015-.063.046-.032.024-.038.034a1.09 1.09 0 0 0-.22.271l-.014.024-.012.025a1.09 1.09 0 0 0-.106.331l-.008.052-.003.04-.004.073v20.142c-.995-.668-2.26-1.047-3.657-1.047a7.85 7.85 0 0 0-2.39.378c-3.496 1.117-5.58 4.4-4.65 7.316.707 2.213 2.92 3.643 5.64 3.643a7.85 7.85 0 0 0 2.39-.378c1.65-.527 3.045-1.55 3.926-2.877zm-1.84-1.22c-.605.9-1.584 1.62-2.758 1.995a5.64 5.64 0 0 1-1.717.273c-1.74 0-3.128-.827-3.537-2.106-.562-1.757.882-3.794 3.217-4.54a5.64 5.64 0 0 1 1.717-.273c1.74 0 3.13.827 3.537 2.106.258.807.095 1.7-.46 2.545zm29.277 7.292l-.016-23.9-.007-.044-.01-.042-.018-.066-.04-.104c-.005-.013-.01-.02-.013-.028l-.035-.07-.024-.04-.032-.05-.035-.047-.03-.037-.043-.047-.03-.03-.047-.043-.034-.03-.047-.035-.042-.03-.044-.027-.05-.028-.04-.02-.058-.025-.04-.015-.06-.02-.047-.012-.055-.013-.06-.01-.043-.006-.08-.004h-.023l-.093.005-.024.002-.072.01-.04.006-.047.012-.062.017-.028.01-.077.03-15.892 7.035-.05.032-.047.035-.036.03-.048.043-.03.03-.043.047-.03.034-.035.047-.03.042-.026.043-.03.05-.02.04-.026.06-.014.04-.02.062-.01.045-.013.058-.01.058-.006.047-.005.103V37.68c-.993-.663-2.252-1.038-3.645-1.038a7.85 7.85 0 0 0-2.39.378c-1.65.528-3.045 1.55-3.926 2.878-.932 1.405-1.2 2.98-.723 4.44.707 2.213 2.92 3.643 5.64 3.643a7.85 7.85 0 0 0 2.39-.378c1.65-.528 3.045-1.55 3.926-2.877.704-1.06 1.022-2.22.935-3.35v-18.75l13.546-5.987v14.162c-.993-.663-2.252-1.038-3.645-1.038a7.85 7.85 0 0 0-2.39.378c-3.496 1.117-5.58 4.4-4.65 7.316.707 2.213 2.92 3.643 5.64 3.643a7.85 7.85 0 0 0 2.39-.378c1.65-.528 3.045-1.55 3.926-2.878.704-1.06 1.022-2.22.935-3.35zM18.453 45.496a5.64 5.64 0 0 1-1.717.273c-1.74 0-3.128-.827-3.537-2.106-.258-.807-.095-1.7.46-2.545.605-.9 1.584-1.62 2.758-1.995a5.64 5.64 0 0 1 1.717-.273c1.74 0 3.128.827 3.537 2.106a2.51 2.51 0 0 1 .107.538v.417c0 .012.001.024.002.036-.042.52-.233 1.05-.568 1.554-.605.9-1.584 1.62-2.758 1.995zm5.533-25.284v-1.75l13.546-5.987v1.75l-13.546 5.987zm10.22 18.407a5.64 5.64 0 0 1-1.717.273c-1.74 0-3.128-.827-3.537-2.106-.562-1.757.882-3.794 3.217-4.54a5.64 5.64 0 0 1 1.717-.273c1.74 0 3.13.827 3.537 2.106a2.51 2.51 0 0 1 .107.538v.227c0 .043.003.086.008.128-.025.55-.22 1.115-.575 1.652-.605.9-1.584 1.62-2.758 1.995z" fill="#333" fill-rule="nonzero"/></svg>
